X: 3805
T: Black Bear, The
R: jig
M: 6/8
K: Eminor
|:BAB EFE|BAB def|~e3 edB|dBA AGA|
BAB EFE|BAB def|edB A2B|1 GFD ~E3:|2 GFd ~e3||
|:gfg e2f|~g3 bge|~g3 efg|fdf afd|
gfg e2f|~g3 bag|fag fed|1 efd e2f:|2 BAF ~E3||

